icons/svg/poi_colored/chimney.svg

<?xml version="1.0" encoding="UTF-8" standalone="no"?>
<!-- Created with Inkscape (http://www.inkscape.org/) -->

<svg
   xmlns:dc="http://purl.org/dc/elements/1.1/"
   xmlns:cc="http://creativecommons.org/ns#"
   xmlns:rdf="http://www.w3.org/1999/02/22-rdf-syntax-ns#"
   xmlns:svg="http://www.w3.org/2000/svg"
   xmlns="http://www.w3.org/2000/svg"
   xmlns:sodipodi="http://sodipodi.sourceforge.net/DTD/sodipodi-0.dtd"
   xmlns:inkscape="http://www.inkscape.org/namespaces/inkscape"
   version="1.0"
   width="580"
   height="580"
   id="svg2"
   sodipodi:version="0.32"
   inkscape:version="0.48.4 r9939"
   sodipodi:docname="chimney.svg"
   inkscape:output_extension="org.inkscape.output.svg.inkscape">
  <metadata
     id="metadata10">
    <rdf:RDF>
      <cc:Work
         rdf:about="">
        <dc:format>image/svg+xml</dc:format>
        <dc:type
           rdf:resource="http://purl.org/dc/dcmitype/StillImage" />
        <cc:license
           rdf:resource="http://web.resource.org/cc/PublicDomain" />
        <dc:language>en</dc:language>
        <dc:title></dc:title>
      </cc:Work>
    </rdf:RDF>
  </metadata>
  <sodipodi:namedview
     inkscape:window-height="1004"
     inkscape:window-width="1920"
     inkscape:pageshadow="2"
     inkscape:pageopacity="0.0"
     guidetolerance="10.0"
     gridtolerance="10.0"
     objecttolerance="10.0"
     borderopacity="1.0"
     bordercolor="#666666"
     pagecolor="#ffffff"
     id="base"
     showgrid="false"
     inkscape:zoom="0.70710678"
     inkscape:cx="97.24592"
     inkscape:cy="356.16479"
     inkscape:window-x="1680"
     inkscape:window-y="0"
     inkscape:current-layer="svg2"
     inkscape:window-maximized="1" />
  <defs
     id="defs4">
    <inkscape:perspective
       sodipodi:type="inkscape:persp3d"
       inkscape:vp_x="0 : 290 : 1"
       inkscape:vp_y="0 : 1000 : 0"
       inkscape:vp_z="580 : 290 : 1"
       inkscape:persp3d-origin="290 : 193.33333 : 1"
       id="perspective12" />
    <style
       type="text/css"
       id="style6">
   
    .fil0 {fill:#EF7900}
   
  </style>
    <inkscape:perspective
       id="perspective6807"
       inkscape:persp3d-origin="29.116032 : 19.410688 : 1"
       inkscape:vp_z="58.232063 : 29.116032 : 1"
       inkscape:vp_y="0 : 1000 : 0"
       inkscape:vp_x="0 : 29.116032 : 1"
       sodipodi:type="inkscape:persp3d" />
    <inkscape:perspective
       id="perspective6954"
       inkscape:persp3d-origin="290 : 193.33333 : 1"
       inkscape:vp_z="580 : 290 : 1"
       inkscape:vp_y="0 : 1000 : 0"
       inkscape:vp_x="0 : 290 : 1"
       sodipodi:type="inkscape:persp3d" />
    <inkscape:perspective
       id="perspective2541"
       inkscape:persp3d-origin="240 : 160 : 1"
       inkscape:vp_z="480 : 240 : 1"
       inkscape:vp_y="0 : 1000 : 0"
       inkscape:vp_x="0 : 240 : 1"
       sodipodi:type="inkscape:persp3d" />
    <inkscape:perspective
       id="perspective2750"
       inkscape:persp3d-origin="215 : 143.33333 : 1"
       inkscape:vp_z="430 : 215 : 1"
       inkscape:vp_y="0 : 1000 : 0"
       inkscape:vp_x="0 : 215 : 1"
       sodipodi:type="inkscape:persp3d" />
    <inkscape:perspective
       id="perspective3730"
       inkscape:persp3d-origin="88.929146 : 101.19778 : 1"
       inkscape:vp_z="177.85829 : 151.79668 : 1"
       inkscape:vp_y="0 : 1000 : 0"
       inkscape:vp_x="0 : 151.79668 : 1"
       sodipodi:type="inkscape:persp3d" />
    <inkscape:perspective
       id="perspective4168"
       inkscape:persp3d-origin="16 : 10.666667 : 1"
       inkscape:vp_z="32 : 16 : 1"
       inkscape:vp_y="0 : 1000 : 0"
       inkscape:vp_x="0 : 16 : 1"
       sodipodi:type="inkscape:persp3d" />
  </defs>
  <g
     id="g1327">
    <path
       d="M 66.275,1.768 C 24.94,1.768 1.704,23.139 1.704,66.804 L 1.704,516.927 C 1.704,557.771 22.598,579.156 63.896,579.156 L 515.92,579.156 C 557.227,579.156 578.149,558.84 578.149,516.927 L 578.149,66.804 C 578.149,24.203 557.227,1.768 514.627,1.768 C 514.624,1.768 66.133,1.625 66.275,1.768 z"
       style="fill:#111111;stroke:#eeeeee;stroke-width:3.40799999"
       id="path1329" />
  </g>
  <path
     style="fill:#ffffff;fill-opacity:1;stroke:none"
     d="m 123.94304,519.46522 41.77962,-319.49152 54.6822,-0.61441 34.58675,320.1432 c 0,0 -11.32289,8.44789 -64.07819,8.58347 -52.7553,0.13558 -66.97038,-8.62074 -66.97038,-8.62074 z"
     id="path3754"
     inkscape:connector-curvature="0"
     sodipodi:nodetypes="cccczc" />
  <path
     style="fill:#ffffff;fill-opacity:1;stroke:none"
     d="m 207.89042,149.81294 c 9.10001,-9.06609 9.51165,-8.74776 21.79978,-17.96386 12.28815,-9.2161 51.29924,-13.13895 51.29924,-13.13895 0,0 21.6789,-33.419684 62.22974,-45.093413 40.55085,-11.673729 43.29914,4.344512 43.29914,4.344512 0,0 142.4632,-58.513192 143.0776,-0.144548 -1.57898,20.702417 -22.84195,15.826585 -22.84195,15.826585 0,0 40.01648,44.436664 -142.39608,46.817794 0,0 10.91647,8.8794 -21.22104,17.68912 -32.13751,8.80972 -74.2705,0.78063 -74.2705,0.78063 0,0 -1.38787,12.87176 -52.82399,16.36267 -12.3435,5.25216 -35.97764,5.17185 -38.77188,0.5694 0,0 -0.39331,-15.82371 16.38012,-16.29875 0.27343,1.025 9.59007,-5.11877 14.23982,-9.75119 z"
     id="path3756"
     inkscape:connector-curvature="0"
     sodipodi:nodetypes="sscscccczccccs" />
</svg>

<svg width="580" height="580" viewBox="0 0 580 580" fill="none" xmlns="http://www.w3.org/2000/svg">
<g clip-path="url(#clip0)">
<path d="M66.275 1.7679C24.94 1.7679 1.70398 23.1389 1.70398 66.8039V516.927C1.70398 557.771 22.598 579.156 63.896 579.156H515.92C557.227 579.156 578.149 558.84 578.149 516.927V66.8039C578.149 24.2029 557.227 1.7679 514.627 1.7679C514.624 1.7679 66.133 1.6249 66.275 1.7679Z" fill="#111111" stroke="#EEEEEE" stroke-width="3.408"/>
<path d="M123.943 519.465L165.723 199.974L220.405 199.359L254.992 519.503C254.992 519.503 243.669 527.95 190.913 528.086C138.158 528.222 123.943 519.465 123.943 519.465V519.465Z" fill="white"/>
<path d="M207.89 149.813C216.99 140.747 217.402 141.065 229.69 131.849C241.978 122.633 280.989 118.71 280.989 118.71C280.989 118.71 302.668 85.2906 343.219 73.6168C383.77 61.9431 386.518 77.9613 386.518 77.9613C386.518 77.9613 528.982 19.4482 529.596 77.8168C528.017 98.5192 506.754 93.6434 506.754 93.6434C506.754 93.6434 546.77 138.08 364.358 140.461C364.358 140.461 375.274 149.341 343.137 158.15C310.999 166.96 268.866 158.931 268.866 158.931C268.866 158.931 267.478 171.803 216.042 175.294C203.699 180.546 180.065 180.465 177.27 175.863C177.27 175.863 176.877 160.039 193.651 159.564C193.924 160.589 203.241 154.445 207.89 149.813V149.813Z" fill="white"/>
</g>
<defs>
<clipPath id="clip0">
<path d="M0 0H580V580H0V0Z" fill="white"/>
</clipPath>
</defs>
</svg>
